app/img/alternative-menu-logo.svg

<svg width="33" height="33" viewBox="0 0 33 33" fill="none" xmlns="http://www.w3.org/2000/svg">
<path fill-rule="evenodd" clip-rule="evenodd" d="M5.45269 31.7711H0.500488C0.500488 31.7711 6.87358 12.1548 8.97989 5.67429C9.96534 2.64223 12.7904 0.589355 15.978 0.589355H24.8314C27.5013 0.589355 29.7295 1.7171 31.1149 3.62278C32.4993 5.52856 32.8921 7.96707 32.0847 10.4547C31.2764 12.9424 30.5128 15.2907 29.8138 17.4423C28.8701 20.3475 26.2554 22.3494 23.2324 22.5122C23.2324 22.5122 23.2168 22.5071 27.4523 9.47045C27.8263 8.32 27.6898 7.19392 27.1023 6.38629C26.5158 5.57877 25.5262 5.10084 24.2168 5.10084H16.6197C15.128 5.10084 13.8061 6.06149 13.3446 7.48039L5.45269 31.7711Z" fill="#F0145A"/>
<path fill-rule="evenodd" clip-rule="evenodd" d="M23.2321 22.5118H13.2505L17.6486 9.13574L22.6243 9.16515L19.7351 17.9865L24.696 17.9895L23.2321 22.5118Z" fill="url(#paint0_linear)"/>
<defs>
<linearGradient id="paint0_linear" x1="13.2498" y1="19.9498" x2="24.3533" y2="25.7533" gradientUnits="userSpaceOnUse">
<stop stop-color="#F0145A"/>
<stop offset="1" stop-color="#693264"/>
</linearGradient>
</defs>
</svg>

<svg width="33" height="33" fill="none" xmlns="http://www.w3.org/2000/svg"><path fill-rule="evenodd" clip-rule="evenodd" d="M5.453 31.771H.5L8.98 5.674A7.359 7.359 0 0115.978.59h8.853c2.67 0 4.899 1.128 6.284 3.034 1.384 1.906 1.777 4.344.97 6.832l-2.271 6.987a7.33 7.33 0 01-6.582 5.07s-.015-.005 4.22-13.042c.374-1.15.238-2.276-.35-3.084-.586-.807-1.576-1.285-2.885-1.285H16.62c-1.492 0-2.814.96-3.275 2.38L5.453 31.77z" fill="#F0145A"/><path fill-rule="evenodd" clip-rule="evenodd" d="M23.232 22.512h-9.981l4.398-13.376 4.975.03-2.889 8.82 4.961.003-1.464 4.523z" fill="url(#paint0_linear)"/><defs><linearGradient id="paint0_linear" x1="13.25" y1="19.95" x2="24.353" y2="25.753" gradientUnits="userSpaceOnUse"><stop stop-color="#F0145A"/><stop offset="1" stop-color="#693264"/></linearGradient></defs></svg>
